X: 85
T:Old Robin Adair. BF13.084
M:3/4
L:1/8
Q:90
S:J.Lishman()MS,c1825,Lakes,Browne Coll.
R:Air
O:England
A:Lakes
N:Bars 3, 7 and 15 - it  is possible they are all supposed to be the same
N:as Bar 3, getting progressively more inaccurately written.  There is an
N:A flat, in second space up, at the begining of bar 9.  Could be a
N:repeated key signature indicating a written source.
Z:vmp.Cherri Graebe.
K:F major
c2d2e2|f3ga2|c<f d<f e<g|f4z2|c2d2e2|f3ga2|!
c<f d<f e<g|f4 z2|a2a2a2|c'3cc2|a2ac'((3bge)|!
f3dc2|c'2 ba gf|f3g"* pause"a2| bg ab ge|c<f d<f e<g|f4:|]
